src/pos-icons/barcode.svg

<svg height="24" viewBox="0 0 24 24" width="24" xmlns="http://www.w3.org/2000/svg"><path d="m2 6h2v12h-2zm3 0h1v12h-1zm2 0h3v12h-3zm4 0h1v12h-1zm3 0h2v12h-2zm3 0h3v12h-3zm4 0h1v12h-1z"/></svg>

<?xml version="1.0" encoding="UTF-8"?><!DOCTYPE svg PUBLIC "-//W3C//DTD SVG 1.1//EN" "http://www.w3.org/Graphics/SVG/1.1/DTD/svg11.dtd"><svg xmlns="http://www.w3.org/2000/svg" xmlns:xlink="http://www.w3.org/1999/xlink" version="1.1" id="mdi-barcode" width="24" height="24" viewBox="0 0 24 24"><path d="M2,6H4V18H2V6M5,6H6V18H5V6M7,6H10V18H7V6M11,6H12V18H11V6M14,6H16V18H14V6M17,6H20V18H17V6M21,6H22V18H21V6Z" /></svg>
